contributed-vectors/angry_birds_friends.svg

<?xml version="1.0" encoding="UTF-8" standalone="no"?>
<svg
   xmlns:dc="http://purl.org/dc/elements/1.1/"
   xmlns:cc="http://creativecommons.org/ns#"
   xmlns:rdf="http://www.w3.org/1999/02/22-rdf-syntax-ns#"
   xmlns:svg="http://www.w3.org/2000/svg"
   xmlns="http://www.w3.org/2000/svg"
   xmlns:sodipodi="http://sodipodi.sourceforge.net/DTD/sodipodi-0.dtd"
   xmlns:inkscape="http://www.inkscape.org/namespaces/inkscape"
   viewBox="0 0 192 192"
   version="1.1"
   id="svg16"
   sodipodi:docname="angry_birds_friends.svg"
   inkscape:version="0.92.4 (5da689c313, 2019-01-14)">
  <metadata
     id="metadata20">
    <rdf:RDF>
      <cc:Work
         rdf:about="">
        <dc:format>image/svg+xml</dc:format>
        <dc:type
           rdf:resource="http://purl.org/dc/dcmitype/StillImage" />
        <dc:title></dc:title>
      </cc:Work>
    </rdf:RDF>
  </metadata>
  <sodipodi:namedview
     pagecolor="#ffffff"
     bordercolor="#666666"
     borderopacity="1"
     objecttolerance="10"
     gridtolerance="10"
     guidetolerance="10"
     inkscape:pageopacity="0"
     inkscape:pageshadow="2"
     inkscape:window-width="1920"
     inkscape:window-height="1017"
     id="namedview18"
     showgrid="true"
     inkscape:zoom="4.9166667"
     inkscape:cx="94.702721"
     inkscape:cy="108.14147"
     inkscape:window-x="-8"
     inkscape:window-y="-8"
     inkscape:window-maximized="1"
     inkscape:current-layer="svg16"
     inkscape:snap-global="true">
    <inkscape:grid
       type="xygrid"
       id="grid827"
       spacingx="4"
       spacingy="4" />
  </sodipodi:namedview>
  <defs
     id="defs4">
    <style
       id="style2">.a{fill:none;stroke:#b1b5bd;stroke-linecap:round;stroke-linejoin:round;isolation:isolate;opacity:0.63;}</style>
  </defs>
  <rect
     class="a"
     x="20"
     y="28"
     width="152"
     height="144"
     rx="10"
     id="rect6"
     style="opacity:1;isolation:isolate;fill:#ff837d;stroke:none;stroke-linecap:round;stroke-linejoin:round" />
  <ellipse
     style="opacity:1;vector-effect:none;fill:#ffffff;fill-opacity:1;stroke-width:4.11342955;paint-order:stroke fill markers"
     id="path841"
     cx="76.141388"
     cy="92.826561"
     rx="20.47279"
     ry="17.708958" />
  <ellipse
     style="opacity:1;vector-effect:none;fill:#ffffff;fill-opacity:1;stroke-width:4.12530041;paint-order:stroke fill markers"
     id="path841-3"
     cx="116.06332"
     cy="92.109947"
     rx="20.47279"
     ry="17.811321" />
  <path
     style="opacity:1;fill:#f9de81;stroke-width:4.02631474"
     d="M 77.396479,109.68133 95.99999,91.97352 113.5876,109.53659 95.99999,121.99709 Z"
     id="path833"
     inkscape:connector-curvature="0"
     sodipodi:nodetypes="ccccc" />
  <path
     style="fill:#e2c9b0;stroke-width:4.02631474"
     d="M 96 109.28711 C 32.181521 109.28711 24.598821 158.06397 23.689453 169.76562 C 25.408673 171.16289 27.601887 172 30 172 L 162 172 C 164.39811 172 166.59133 171.16289 168.31055 169.76562 C 167.40118 158.06397 159.81847 109.28711 96 109.28711 z "
     id="path864" />
  <path
     style="fill:#c39a54;stroke-width:4.02631474"
     d="m 77.396479,109.68133 18.603511,-7.02785 17.58761,6.88311 -17.58761,12.4605 z"
     id="path862"
     inkscape:connector-curvature="0"
     sodipodi:nodetypes="ccccc" />
  <ellipse
     style="opacity:1;vector-effect:none;fill:#4a4a4a;fill-opacity:1;stroke-width:3.67054343;paint-order:stroke fill markers"
     id="path858"
     cx="111.45695"
     cy="93.952599"
     rx="10.748216"
     ry="9.0080242" />
  <ellipse
     style="opacity:1;vector-effect:none;fill:#4a4a4a;fill-opacity:1;stroke-width:3.67054343;paint-order:stroke fill markers"
     id="path858-6"
     cx="80.543015"
     cy="93.543175"
     rx="10.748216"
     ry="9.0080242" />
  <path
     style="fill:#56595b;stroke:none;stroke-width:1px;stroke-linecap:butt;stroke-linejoin:miter;stroke-opacity:1"
     d="m 52.062235,78.095884 c 0,0 8.878888,-5.874542 18.552565,-7.981917 9.673676,-2.107376 21.428931,0.07191 21.428931,0.07191 L 88.59209,59.830957 c 0,0 -12.986953,-3.610303 -21.716567,-0.791001 C 58.145908,61.859257 50.048778,68 50.048778,68 Z"
     id="path840"
     inkscape:connector-curvature="0"
     sodipodi:nodetypes="czcczcc" />
  <path
     style="fill:#56595b;stroke:none;stroke-width:1px;stroke-linecap:butt;stroke-linejoin:miter;stroke-opacity:1"
     d="m 139.93523,78.095886 c 0,0 -8.87888,-5.874542 -18.55256,-7.981917 -9.67368,-2.107376 -21.428932,0.07191 -21.428932,0.07191 l 3.595462,-10.35492 c 0,0 12.84313,-3.610303 21.57275,-0.791001 8.72961,2.819301 16.5391,9.276282 16.5391,9.276282 z"
     id="path840-4"
     inkscape:connector-curvature="0"
     sodipodi:nodetypes="czcczcc" />
  <path
     style="opacity:1;vector-effect:none;fill:#f9de81;fill-opacity:1;fill-rule:evenodd;stroke:none;stroke-width:12;stroke-linecap:round;stroke-linejoin:round;stroke-miterlimit:4;stroke-dasharray:none;stroke-opacity:1;paint-order:stroke fill markers"
     d="M 30 20 C 24.46 20 20 24.46 20 30 L 20 52 L 172 52 L 172 30 C 172 24.46 167.54 20 162 20 L 30 20 z "
     id="rect888-1" />
  <path
     style="fill:#c39a54;stroke:none;stroke-width:1px;stroke-linecap:butt;stroke-linejoin:miter;stroke-opacity:1"
     d="M 36,20 60,40 84,20 Z"
     id="path909"
     inkscape:connector-curvature="0"
     sodipodi:nodetypes="cccc" />
  <path
     style="fill:#c39a54;stroke:none;stroke-width:1px;stroke-linecap:butt;stroke-linejoin:miter;stroke-opacity:1"
     d="m 108,20 24,20 24,-20 z"
     id="path909-5"
     inkscape:connector-curvature="0"
     sodipodi:nodetypes="cccc" />
</svg>

<svg xmlns="http://www.w3.org/2000/svg" viewBox="0 0 192 192"><rect width="152" height="144" x="20" y="28" rx="10" style="opacity:1;isolation:isolate;fill:#ff837d;stroke:none;stroke-linecap:round;stroke-linejoin:round"/><ellipse cx="76.141" cy="92.827" rx="20.473" ry="17.709" style="opacity:1;vector-effect:none;fill:#fff;fill-opacity:1;stroke-width:4.11342955;paint-order:stroke fill markers"/><ellipse cx="116.063" cy="92.11" rx="20.473" ry="17.811" style="opacity:1;vector-effect:none;fill:#fff;fill-opacity:1;stroke-width:4.12530041;paint-order:stroke fill markers"/><path d="M77.396 109.681 96 91.974l17.588 17.563L96 121.997Z" style="opacity:1;fill:#f9de81;stroke-width:4.02631474"/><path d="M96 109.287c-63.818 0-71.401 48.777-72.31 60.479A9.963 9.963 0 0 0 30 172h132a9.963 9.963 0 0 0 6.31-2.234c-.909-11.702-8.492-60.479-72.31-60.479z" style="fill:#e2c9b0;stroke-width:4.02631474"/><path d="M77.396 109.681 96 102.653l17.588 6.884L96 121.997z" style="fill:#c39a54;stroke-width:4.02631474"/><ellipse cx="111.457" cy="93.953" rx="10.748" ry="9.008" style="opacity:1;vector-effect:none;fill:#4a4a4a;fill-opacity:1;stroke-width:3.67054343;paint-order:stroke fill markers"/><ellipse cx="80.543" cy="93.543" rx="10.748" ry="9.008" style="opacity:1;vector-effect:none;fill:#4a4a4a;fill-opacity:1;stroke-width:3.67054343;paint-order:stroke fill markers"/><path d="M52.062 78.096s8.88-5.875 18.553-7.982 21.429.072 21.429.072L88.592 59.83s-12.987-3.61-21.716-.791C58.146 61.86 50.049 68 50.049 68ZM139.935 78.096s-8.879-5.875-18.552-7.982c-9.674-2.107-21.43.072-21.43.072l3.596-10.355s12.843-3.61 21.573-.791c8.73 2.82 16.539 9.276 16.539 9.276z" style="fill:#56595b;stroke:none;stroke-width:1px;stroke-linecap:butt;stroke-linejoin:miter;stroke-opacity:1"/><path d="M30 20c-5.54 0-10 4.46-10 10v22h152V30c0-5.54-4.46-10-10-10H30z" style="opacity:1;vector-effect:none;fill:#f9de81;fill-opacity:1;fill-rule:evenodd;stroke:none;stroke-width:12;stroke-linecap:round;stroke-linejoin:round;stroke-miterlimit:4;stroke-dasharray:none;stroke-opacity:1;paint-order:stroke fill markers"/><path d="m36 20 24 20 24-20ZM108 20l24 20 24-20z" style="fill:#c39a54;stroke:none;stroke-width:1px;stroke-linecap:butt;stroke-linejoin:miter;stroke-opacity:1"/></svg>
